X:156
T:Dowd's Favourite
R:reel
M:4/4
L:1/8
K:Gdor
DGGA BABF | DFF2 DFCF | DGGA BABd | cAfA AGGF ::
B2dB fBdB | B2dB cAFA | B2dB fBdB | cAFA BGGA |
B2dB fBdB | B2dB cAFA | BAGF Ggge | fdcA BGGA ||
gdd2 gbag | fcc2 fgaf | gdd2 gbag | fdcA BGG2 |
gdd2 gbag | fcc2 fcAF | GABc dgge | fdcA BGGA |]
